;FLAVOR:Marlin
;TIME:3374
;Filament used: 1.42577m
;Layer height: 0.1
;MINX:53.78
;MINY:72.168
;MINZ:0.3
;MAXX:166.22
;MAXY:137.832
;MAXZ:1.275
;Generated with Cura_SteamEngine 5.2.1
M82 ;absolute extrusion mode
;Profil Homepage: https://github.com/NilsRo/Cura_Anycubic_MegaS_Profile

;Slicer Information - (Support for OctoPrint Slicer Estimator)
;Slicer info:material_guid;0ff92885-617b-4144-a03c-9989872454bc
;Slicer info:material_id;generic_pla_175
;Slicer info:material_brand;Generic
;Slicer info:material_name;PLA
;Slicer info:filament_cost;[0.0]
;Slicer info:material_bed_temperature;60
;Slicer info:material_bed_temperature_layer_0;60
;Slicer info:material_print_temperature;200
;Slicer info:material_print_temperature_layer_0;205
;Slicer info:material_flow;100
;Slicer info:layer_height;0.1
;Slicer info:machine_nozzle_size;0.4
;Slicer info:wall_thickness;1.2000000000000002
;Slicer info:speed_print;50.0
;Slicer info:speed_topbottom;25.0
;Slicer info:travel_speed;100.0
;Slicer info:support;0
;Slicer info:retraction_speed;30
;Slicer info:retraction_amount;6
;Slicer info:layer_height;0.1
;Slicer info:infill_pattern;grid
;Slicer info:infill_sparse_density;25
;Slicer info:cool_fan_enabled;True
;Slicer info:cool_fan_speed;100
;Slicer info:sliced_at;Thu 25-04-2024 22:26:18
G21                                        ; metric values 
G90                                        ; absolute positioning 
M82                                        ; set extruder to absolute mode 
M107                                       ; start with the fan off 
M140 S60   ; Start heating the bed 
G4 S60                                     ; wait 1 minute 
M104 S205 ; start heating the hot end 
M190 S60   ; wait for bed 
M109 S205 ; wait for hotend 
M300 S1000 P500                            ; BEEP heating done 
G28 X0 Y10 Z0                              ; move X/Y to min endstops 
M420 S1                                    ; Enable leveling 
M420 Z2.0                                  ; Set leveling fading height to 2 mm 
G0 Z0.15                                   ; lift nozzle a bit 
G92 E0                                     ; zero the extruded length 
G1 X50 E20 F500                            ; Extrude 20mm of filament in a 5cm line. 
G92 E0                                     ; zero the extruded length again 
G1 E-2 F500                                ; Retract a little 
G1 X50 F500                                ; wipe away from the filament line
G1 X100 F9000                              ; Quickly wipe away from the filament line
G92 E0
G92 E0
G1 F1800 E-6
;LAYER_COUNT:10
;LAYER:0
M106 S76.5
M205 X10 Y10
G1 F480 Z0.375
G0 F6000 X56.223 Y73.158 Z0.375
M205 X8 Y8
;TYPE:SKIRT
G1 F480 Z0.3
G1 F1800 E0
G1 F1200 X56.796 Y72.813 E0.03337
G1 X57.407 Y72.54 E0.06676
G1 X58.045 Y72.341 E0.1001
G1 X58.703 Y72.219 E0.13349
G1 X59.378 Y72.168 E0.16726
G1 X159.993 Y72.169 E5.18696
G1 X160.691 Y72.179 E5.22179
G1 X161.358 Y72.228 E5.25515
G1 X162.015 Y72.357 E5.28856
G1 X162.651 Y72.563 E5.32191
G1 X163.259 Y72.844 E5.35533
G1 X163.828 Y73.194 E5.38865
G1 X164.352 Y73.611 E5.42207
G1 X164.822 Y74.087 E5.45544
G1 X165.232 Y74.615 E5.48879
G1 X165.577 Y75.189 E5.5222
G1 X165.85 Y75.8 E5.55559
G1 X166.048 Y76.439 E5.58896
G1 X166.169 Y77.097 E5.62234
G1 X166.22 Y77.765 E5.65577
G1 X166.22 Y131.565 E8.33986
G1 X166.211 Y132.292 E8.37613
G1 X166.162 Y132.96 E8.40955
G1 X166.035 Y133.616 E8.44288
G1 X165.83 Y134.253 E8.47627
G1 X165.551 Y134.861 E8.50964
G1 X165.201 Y135.431 E8.54301
G1 X164.785 Y135.956 E8.57643
G1 X164.31 Y136.427 E8.6098
G1 X163.783 Y136.838 E8.64315
G1 X163.21 Y137.184 E8.67654
G1 X162.6 Y137.458 E8.7099
G1 X161.961 Y137.658 E8.74331
G1 X161.303 Y137.78 E8.7767
G1 X160.624 Y137.832 E8.81067
G1 X60.015 Y137.832 E13.83007
G1 X59.317 Y137.823 E13.8649
G1 X58.65 Y137.774 E13.89827
G1 X57.993 Y137.646 E13.93166
G1 X57.356 Y137.441 E13.96505
G1 X56.748 Y137.161 E13.99844
G1 X56.178 Y136.811 E14.03181
G1 X55.654 Y136.395 E14.06519
G1 X55.183 Y135.92 E14.09856
G1 X54.772 Y135.392 E14.13195
G1 X54.427 Y134.819 E14.16532
G1 X54.153 Y134.209 E14.19868
G1 X53.953 Y133.57 E14.23208
G1 X53.832 Y132.912 E14.26546
G1 X53.78 Y132.23 E14.29958
G1 X53.781 Y78.366 E16.98687
G1 X53.79 Y77.701 E17.02005
G1 X53.839 Y77.034 E17.05342
G1 X53.967 Y76.377 E17.08681
G1 X54.172 Y75.741 E17.12015
G1 X54.452 Y75.133 E17.15354
G1 X54.803 Y74.563 E17.18694
G1 X55.219 Y74.039 E17.22032
G1 X55.694 Y73.569 E17.25366
G1 X56.223 Y73.158 E17.28708
M205 X10 Y10
G0 F6000 X56.606 Y73.385
M205 X8 Y8
G1 F1200 X57.17 Y73.074 E17.31921
G1 X57.769 Y72.836 E17.35137
G1 X58.393 Y72.673 E17.38354
G1 X59.343 Y72.568 E17.43123
G1 X159.987 Y72.569 E22.45238
G1 X160.685 Y72.579 E22.4872
G1 X161.328 Y72.628 E22.51938
G1 X161.96 Y72.756 E22.55155
G1 X162.571 Y72.962 E22.58372
G1 X163.152 Y73.241 E22.61587
G1 X163.694 Y73.59 E22.64803
G1 X164.188 Y74.004 E22.68019
G1 X164.628 Y74.476 E22.71238
G1 X165.006 Y74.998 E22.74454
G1 X165.316 Y75.563 E22.77669
G1 X165.554 Y76.162 E22.80885
G1 X165.716 Y76.786 E22.84101
G1 X165.82 Y77.732 E22.88849
G1 X165.82 Y131.56 E25.57398
G1 X165.811 Y132.287 E25.61025
G1 X165.763 Y132.93 E25.64242
G1 X165.636 Y133.562 E25.67458
G1 X165.431 Y134.174 E25.70678
G1 X165.153 Y134.755 E25.73892
G1 X164.805 Y135.298 E25.77109
G1 X164.392 Y135.793 E25.80325
G1 X163.921 Y136.233 E25.83541
G1 X163.399 Y136.612 E25.86759
G1 X162.835 Y136.923 E25.89973
G1 X162.236 Y137.162 E25.9319
G1 X161.613 Y137.326 E25.96404
G1 X160.658 Y137.432 E26.01198
G1 X60.02 Y137.432 E31.03283
G1 X59.322 Y137.423 E31.06766
G1 X58.679 Y137.374 E31.09983
G1 X58.047 Y137.247 E31.13199
G1 X57.436 Y137.042 E31.16414
G1 X56.855 Y136.764 E31.19628
G1 X56.312 Y136.415 E31.22848
G1 X55.817 Y136.002 E31.26064
G1 X55.377 Y135.531 E31.2928
G1 X54.998 Y135.009 E31.32498
G1 X54.687 Y134.445 E31.35711
G1 X54.449 Y133.846 E31.38927
G1 X54.286 Y133.222 E31.42145
G1 X54.18 Y132.264 E31.46953
G1 X54.18 Y78.372 E34.15822
G1 X54.189 Y77.707 E34.1914
G1 X54.238 Y77.064 E34.22357
G1 X54.366 Y76.432 E34.25574
G1 X54.571 Y75.821 E34.28789
G1 X54.85 Y75.24 E34.32005
G1 X55.199 Y74.697 E34.35225
G1 X55.612 Y74.203 E34.38437
G1 X56.083 Y73.763 E34.41653
G1 X56.606 Y73.385 E34.44873
M205 X10 Y10
G1 F1800 E28.44873
G1 F480 Z0.375
;MESH:Snitch.stl
G0 F6000 X60.556 Y79.285 Z0.375
M205 X8 Y8
;TYPE:WALL-INNER
G1 F480 Z0.3
G1 F1800 E34.44873
G1 F1200 X60.995 Y78.921 E34.47718
G1 X61.575 Y78.595 E34.51037
G1 X62.211 Y78.368 E34.54406
G1 X59.98 Y78.368 E34.65537
G1 X59.981 Y80.141 E34.74382
G1 X60.168 Y79.76 E34.765
G1 X60.556 Y79.285 E34.79559
M205 X10 Y10
G0 F6000 X60.487 Y78.814
M205 X8 Y8
G1 F975.6 X60.456 Y78.866 E34.79931
G1 X60.365 Y78.814 E34.80574
G1 X60.456 Y78.762 E34.81217
M205 X10 Y10
G1 F1800 E28.81217
G1 F480 Z0.375
G0 F6000 X83.741 Y78.779 Z0.375
M205 X8 Y8
;TYPE:WALL-OUTER
G1 F480 Z0.3
G1 F1800 E34.81217
G1 F798.7 X83.741 Y79.728 E34.88331
M205 X10 Y10
G1 F1800 E28.88331
G1 F480 Z0.375
G0 F6000 X89.399 Y91.234 Z0.375
M205 X8 Y8
;TYPE:WALL-INNER
G1 F480 Z0.3
G1 F1800 E34.88331
G1 F1200 X89.135 Y90.682 E34.91384
G1 X89.135 Y89.237 E34.98593
G1 X89.394 Y88.683 E35.01644
G1 X89.965 Y88.356 E35.04927
G1 X93.89 Y88.356 E35.24509
G1 X93.485 Y87.221 E35.30521
G1 X93.041 Y86.284 E35.35694
G1 X92.51 Y85.397 E35.40851
G1 X91.896 Y84.571 E35.45986
G1 X91.198 Y83.8 E35.51175
G1 X90.431 Y83.106 E35.56335
G1 X89.605 Y82.493 E35.61467
G1 X88.714 Y81.959 E35.6665
G1 X87.781 Y81.519 E35.71796
G1 X86.803 Y81.168 E35.7698
G1 X85.802 Y80.918 E35.82127
G1 X84.761 Y80.762 E35.87379
G1 X83.921 Y80.696 E35.91583
G1 X83.561 Y80.696 E35.93379
G1 X82.731 Y80.763 E35.97533
G1 X81.688 Y80.918 E36.02794
G1 X80.687 Y81.168 E36.07941
G1 X79.709 Y81.519 E36.13125
G1 X78.772 Y81.96 E36.18292
G1 X77.886 Y82.493 E36.2345
G1 X77.06 Y83.105 E36.28579
G1 X76.289 Y83.804 E36.33771
G1 X75.595 Y84.571 E36.38932
G1 X74.981 Y85.397 E36.44066
G1 X74.447 Y86.288 E36.49249
G1 X74.005 Y87.224 E36.54413
G1 X73.656 Y88.199 E36.59579
G1 X73.292 Y89.658 E36.67082
G1 X83.913 Y89.658 E37.2007
G1 X84.368 Y89.828 E37.22493
G1 X84.73 Y90.263 E37.25317
G1 X84.811 Y90.626 E37.27172
G1 X84.811 Y91.991 E37.33982
G1 X84.703 Y92.313 E37.35677
G1 X84.491 Y92.593 E37.37429
G1 X84.04 Y92.859 E37.40041
G1 X73.293 Y92.86 E37.93658
G1 X73.656 Y94.315 E38.0114
G1 X74.004 Y95.29 E38.06304
G1 X74.446 Y96.226 E38.11469
G1 X74.98 Y97.117 E38.16651
G1 X75.593 Y97.943 E38.21783
G1 X76.288 Y98.71 E38.26947
G1 X77.059 Y99.408 E38.32135
G1 X77.885 Y100.021 E38.37267
G1 X78.772 Y100.553 E38.42427
G1 X79.708 Y100.995 E38.47591
G1 X80.686 Y101.346 E38.52775
G1 X81.687 Y101.596 E38.57923
G1 X82.714 Y101.749 E38.63103
G1 X83.553 Y101.791 E38.67294
G1 X83.933 Y101.792 E38.6919
G1 X84.775 Y101.749 E38.73396
G1 X85.803 Y101.597 E38.78581
G1 X86.804 Y101.347 E38.83728
G1 X87.781 Y100.995 E38.88909
G1 X88.719 Y100.553 E38.94082
G1 X89.606 Y100.021 E38.99242
G1 X90.432 Y99.408 E39.04374
G1 X91.203 Y98.71 E39.09563
G1 X91.896 Y97.944 E39.14716
G1 X92.486 Y97.151 E39.19648
G1 X92.608 Y97.037 E39.20481
G1 X92.694 Y96.812 E39.21682
G1 X93.043 Y96.226 E39.25085
G1 X93.487 Y95.289 E39.30258
G1 X93.835 Y94.315 E39.35418
G1 X94.085 Y93.314 E39.40566
G1 X94.238 Y92.287 E39.45746
G1 X94.273 Y91.557 E39.49392
G1 X90.049 Y91.557 E39.70466
G1 X89.753 Y91.481 E39.7199
G1 X89.399 Y91.234 E39.74144
M205 X10 Y10
G1 F1800 E33.74144
G1 F480 Z0.375
G0 F6000 X84.255 Y90.254 Z0.375
M205 X8 Y8
G1 F480 Z0.3
G1 F1800 E39.74144
G1 F1200 X84.411 Y90.639 E39.76216
G1 X84.411 Y91.94 E39.82707
G1 X84.17 Y92.341 E39.85041
G1 X83.921 Y92.459 E39.86416
G1 X72.874 Y92.46 E40.4153
G1 X73.013 Y93.392 E40.46231
G1 X73.272 Y94.431 E40.51573
G1 X73.634 Y95.443 E40.56935
G1 X74.092 Y96.414 E40.62291
G1 X74.647 Y97.34 E40.67677
G1 X75.284 Y98.197 E40.73005
G1 X76.004 Y98.993 E40.7836
G1 X76.805 Y99.718 E40.8375
G1 X77.662 Y100.354 E40.89074
G1 X78.583 Y100.907 E40.94434
G1 X79.554 Y101.365 E40.9979
G1 X80.57 Y101.73 E41.05176
G1 X81.609 Y101.989 E41.10518
G1 X82.675 Y102.148 E41.15895
G1 X83.658 Y102.196 E41.20805
G1 X83.743 Y102.326 E41.2158
G1 X83.827 Y102.196 E41.22352
G1 X84.815 Y102.148 E41.27287
G1 X85.881 Y101.989 E41.32664
G1 X86.92 Y101.73 E41.38007
G1 X87.935 Y101.365 E41.43388
G1 X88.907 Y100.907 E41.48749
G1 X89.829 Y100.354 E41.54112
G1 X90.686 Y99.718 E41.59437
G1 X91.486 Y98.993 E41.64823
G1 X92.206 Y98.198 E41.70174
G1 X92.866 Y97.309 E41.75698
G1 X93.028 Y97.305 E41.76507
G1 X92.959 Y97.147 E41.77367
G1 X93.397 Y96.414 E41.81627
G1 X93.857 Y95.442 E41.86992
G1 X94.218 Y94.431 E41.92348
G1 X94.478 Y93.392 E41.97691
G1 X94.637 Y92.326 E42.03068
G1 X94.694 Y91.156 E42.08912
G1 X90.059 Y91.152 E42.32036
G1 X89.693 Y90.963 E42.34091
G1 X89.535 Y90.633 E42.35917
G1 X89.535 Y89.276 E42.42687
G1 X89.804 Y88.854 E42.45184
G1 X90.032 Y88.756 E42.46422
G1 X94.386 Y88.756 E42.68144
G1 X94.218 Y88.083 E42.71605
G1 X93.855 Y87.067 E42.76987
G1 X93.395 Y86.096 E42.82348
G1 X92.843 Y85.174 E42.87709
G1 X92.205 Y84.317 E42.93039
G1 X91.482 Y83.517 E42.98419
G1 X90.685 Y82.796 E43.03781
G1 X89.828 Y82.16 E43.09105
G1 X88.903 Y81.605 E43.14487
G1 X87.935 Y81.149 E43.19825
G1 X86.919 Y80.784 E43.25211
G1 X85.88 Y80.525 E43.30553
G1 X84.806 Y80.364 E43.35972
G1 X83.924 Y80.294 E43.40386
G1 X83.741 Y80.186 E43.41446
G1 X83.556 Y80.295 E43.42517
G1 X82.686 Y80.365 E43.46872
G1 X81.61 Y80.525 E43.52299
G1 X80.571 Y80.784 E43.57641
G1 X79.555 Y81.149 E43.63027
G1 X78.584 Y81.607 E43.68383
G1 X77.663 Y82.16 E43.73743
G1 X76.806 Y82.796 E43.79067
G1 X76.005 Y83.521 E43.84457
G1 X75.285 Y84.317 E43.89812
G1 X74.648 Y85.174 E43.95139
G1 X74.093 Y86.1 E44.00525
G1 X73.635 Y87.071 E44.05882
G1 X73.273 Y88.083 E44.11244
G1 X73.013 Y89.122 E44.16587
G1 X72.874 Y90.058 E44.21308
G1 X83.86 Y90.06 E44.76117
G1 X84.255 Y90.254 E44.78313
M205 X10 Y10
G1 F1800 E38.78313
G1 F480 Z0.375
G0 F6000 X83.894 Y92.059 Z0.375
M205 X8 Y8
;TYPE:WALL-OUTER
G1 F480 Z0.3
G1 F1800 E44.78313
G1 F1200 X72.409 Y92.06 E45.35612
G1 X72.62 Y93.47 E45.42725
G1 X72.889 Y94.547 E45.48263
G1 X73.264 Y95.596 E45.53821
G1 X73.739 Y96.603 E45.59376
G1 X74.314 Y97.562 E45.64954
G1 X74.974 Y98.451 E45.70478
G1 X75.721 Y99.276 E45.76031
G1 X76.551 Y100.028 E45.81618
G1 X77.44 Y100.687 E45.87139
G1 X78.394 Y101.26 E45.92691
G1 X79.401 Y101.735 E45.98246
G1 X80.454 Y102.113 E46.03828
G1 X81.531 Y102.382 E46.09366
G1 X82.636 Y102.546 E46.14939
G1 X83.509 Y102.591 E46.193
G1 F960 X83.741 Y102.787 E46.21194
G1 X83.974 Y102.592 E46.23089
G1 F1200 X84.854 Y102.546 E46.27486
G1 X85.959 Y102.382 E46.33059
G1 X87.036 Y102.113 E46.38597
G1 X88.088 Y101.735 E46.44174
G1 X89.096 Y101.26 E46.49733
G1 X90.051 Y100.687 E46.5529
G1 X90.94 Y100.028 E46.60811
G1 X91.77 Y99.276 E46.66398
G1 X92.516 Y98.452 E46.71944
G1 X93.115 Y97.643 E46.76966
G1 F958.1 X93.406 Y97.546 E46.78883
G1 X93.371 Y97.243 E46.80789
G1 F1200 X93.75 Y96.603 E46.84499
G1 X94.227 Y95.596 E46.90058
G1 X94.602 Y94.547 E46.95616
G1 X94.871 Y93.47 E47.01154
G1 X95.036 Y92.365 E47.06728
G1 X95.111 Y90.756 E47.14765
G1 X90.109 Y90.755 E47.3972
G1 X89.937 Y90.591 E47.40905
G1 X89.935 Y89.307 E47.47311
G1 X90.088 Y89.161 E47.48366
G1 X94.898 Y89.156 E47.72363
G1 X94.601 Y87.967 E47.78478
G1 X94.225 Y86.914 E47.84056
G1 X93.748 Y85.907 E47.89615
G1 X93.176 Y84.952 E47.95169
G1 X92.515 Y84.063 E48.00696
G1 X91.765 Y83.234 E48.06273
G1 X90.939 Y82.486 E48.11833
G1 X90.05 Y81.827 E48.17353
G1 X89.091 Y81.252 E48.22932
G1 X88.088 Y80.779 E48.28465
G1 X87.035 Y80.401 E48.34046
G1 X85.958 Y80.132 E48.39584
G1 X84.851 Y79.966 E48.45169
G1 X83.974 Y79.897 E48.49558
G1 F958.1 X83.741 Y79.728 E48.51357
G1 X83.507 Y79.898 E48.53164
G1 F1200 X82.64 Y79.967 E48.57503
G1 X81.532 Y80.132 E48.63092
G1 X80.455 Y80.401 E48.6863
G1 X79.402 Y80.779 E48.74212
G1 X78.395 Y81.254 E48.79767
G1 X77.441 Y81.827 E48.85319
G1 X76.552 Y82.486 E48.9084
G1 X75.722 Y83.238 E48.96427
G1 X74.975 Y84.063 E49.0198
G1 X74.315 Y84.952 E49.07504
G1 X73.74 Y85.911 E49.13082
G1 X73.265 Y86.918 E49.18637
G1 X72.889 Y87.967 E49.24197
G1 X72.62 Y89.044 E49.29735
G1 X72.411 Y90.458 E49.36866
G1 X83.86 Y90.464 E49.93985
G1 X84.012 Y90.6 E49.95003
G1 X84.008 Y91.895 E50.01464
G1 X83.894 Y92.059 E50.0246
M205 X10 Y10
G0 F6000 X83.694 Y92.059
G1 F1800 E44.0246
G1 F480 Z0.375
G0 F6000 X83.741 Y102.787 Z0.375
M205 X8 Y8
G1 F480 Z0.3
G1 F1800 E50.0246
G1 F797.3 X83.739 Y104.766 E50.17319
G1 F709 X83.666 Y105.014 E50.19502
M205 X10 Y10
G1 F1800 E44.19502
G1 F480 Z0.375
G0 F6000 X83.741 Y107.3 Z0.375
M205 X8 Y8
G1 F480 Z0.3
G1 F1800 E50.19502
G1 F798.7 X83.741 Y105.314 E50.34389
G1 F711.1 X83.666 Y105.014 E50.36993
G1 F651.3 X82.529 Y105.014 E50.47444
G1 F673.2 X81.392 Y105.014 E50.57556
G1 F697.7 X80.255 Y105.014 E50.67312
G1 F724 X79.118 Y105.014 E50.76715
G1 F751.2 X77.981 Y105.014 E50.85776
G1 F781.8 X76.844 Y105.013 E50.94484
M205 X10 Y10
G1 F1800 E44.94484
G1 F480 Z0.375
G0 F6000 X67.592 Y104.402 Z0.375
M205 X8 Y8
;TYPE:WALL-INNER
G1 F480 Z0.3
G1 F1800 E50.94484
G1 F1200 X67.837 Y104.182 E50.96127
G1 X68.263 Y104.028 E50.98386
G1 X69.68 Y104.027 E51.05456
G1 X70.019 Y104.13 E51.07224
G1 X70.356 Y104.402 E51.09384
G1 X70.574 Y104.92 E51.12188
G1 X70.574 Y111.778 E51.46403
G1 X71.609 Y111.406 E51.5189
G1 X72.221 Y111.117 E51.55266
G1 X72.8 Y110.769 E51.58637
G1 X73.338 Y110.369 E51.61981
G1 X73.842 Y109.913 E51.65372
G1 X74.294 Y109.412 E51.68739
G1 X74.694 Y108.875 E51.72079
G1 X75.043 Y108.292 E51.75469
G1 X75.33 Y107.685 E51.78819
G1 X75.559 Y107.044 E51.82215
G1 X75.722 Y106.392 E51.85568
G1 X75.823 Y105.719 E51.88963
G1 X75.851 Y105.197 E51.91571
G1 X75.91 Y104.97 E51.92741
G1 X75.723 Y103.706 E51.99116
G1 X75.559 Y103.053 E52.02475
G1 X75.33 Y102.414 E52.05861
G1 X75.041 Y101.802 E52.09238
G1 X74.694 Y101.223 E52.12606
G1 X74.294 Y100.685 E52.1595
G1 X73.838 Y100.181 E52.19341
G1 X73.338 Y99.729 E52.22704
G1 X72.8 Y99.329 E52.26049
G1 X72.217 Y98.98 E52.29439
G1 X71.609 Y98.693 E52.32793
G1 X70.968 Y98.463 E52.3619
G1 X70.317 Y98.3 E52.39539
G1 X69.646 Y98.2 E52.42923
G1 X68.975 Y98.168 E52.46275
G1 X68.303 Y98.201 E52.49631
G1 X67.631 Y98.301 E52.53021
