;FLAVOR:Marlin
;TIME:11039
;Filament used: 12.4434m
;Layer height: 0.3
;MINX:18.746
;MINY:19.117
;MINZ:0.3
;MAXX:207.362
;MAXY:200.657
;MAXZ:3.375
;Generated with Cura_SteamEngine 5.2.1
M82 ;absolute extrusion mode
;Profil Homepage: https://github.com/NilsRo/Cura_Anycubic_MegaS_Profile

;Slicer Information - (Support for OctoPrint Slicer Estimator)
;Slicer info:material_guid;0ff92885-617b-4144-a03c-9989872454bc
;Slicer info:material_id;generic_pla_175
;Slicer info:material_brand;Generic
;Slicer info:material_name;PLA
;Slicer info:filament_cost;[0.0]
;Slicer info:material_bed_temperature;60
;Slicer info:material_bed_temperature_layer_0;60
;Slicer info:material_print_temperature;200
;Slicer info:material_print_temperature_layer_0;205
;Slicer info:material_flow;100
;Slicer info:layer_height;0.3
;Slicer info:machine_nozzle_size;0.4
;Slicer info:wall_thickness;1.2000000000000002
;Slicer info:speed_print;50.0
;Slicer info:speed_topbottom;25.0
;Slicer info:travel_speed;100.0
;Slicer info:support;0
;Slicer info:retraction_speed;30
;Slicer info:retraction_amount;6
;Slicer info:layer_height;0.3
;Slicer info:infill_pattern;grid
;Slicer info:infill_sparse_density;25
;Slicer info:cool_fan_enabled;True
;Slicer info:cool_fan_speed;100
;Slicer info:sliced_at;Tue 19-03-2024 14:51:06
G21                                        ; metric values 
G90                                        ; absolute positioning 
M82                                        ; set extruder to absolute mode 
M107                                       ; start with the fan off 
M140 S60   ; Start heating the bed 
G4 S60                                     ; wait 1 minute 
M104 S205 ; start heating the hot end 
M190 S60   ; wait for bed 
M109 S205 ; wait for hotend 
M300 S1000 P500                            ; BEEP heating done 
G28 X0 Y10 Z0                              ; move X/Y to min endstops 
M420 S1                                    ; Enable leveling 
M420 Z2.0                                  ; Set leveling fading height to 2 mm 
G0 Z0.15                                   ; lift nozzle a bit 
G92 E0                                     ; zero the extruded length 
G1 X50 E20 F500                            ; Extrude 20mm of filament in a 5cm line. 
G92 E0                                     ; zero the extruded length again 
G1 E-2 F500                                ; Retract a little 
G1 X50 F500                                ; wipe away from the filament line
G1 X100 F9000                              ; Quickly wipe away from the filament line
G92 E0
G92 E0
G1 F1800 E-6
;LAYER_COUNT:11
;LAYER:0
M106 S76.5
M205 X10 Y10
G1 F480 Z0.375
;MESH:slingshot.obj
G0 F6000 X99.784 Y128.654 Z0.375
M205 X8 Y8
;TYPE:WALL-INNER
G1 F480 Z0.3
G1 F1800 E0
G1 F1200 X99.677 Y128.108 E0.02776
G1 X99.283 Y127.644 E0.05813
G1 X98.889 Y126.94 E0.09838
G1 X98.62 Y126.216 E0.13691
G1 X98.403 Y125.952 E0.15396
G1 X98.126 Y125.195 E0.19417
G1 X97.861 Y124.842 E0.2162
G1 X97.626 Y124.175 E0.25148
G1 X97.394 Y123.906 E0.2692
G1 X97.157 Y123.325 E0.30051
G1 X97.108 Y123.021 E0.31587
G1 X96.74 Y122.541 E0.34604
G1 X96.593 Y122.015 E0.37329
G1 X96.137 Y121.394 E0.41173
G1 X96.118 Y120.606 E0.45105
G1 X95.9 Y120.351 E0.46779
G1 X95.653 Y119.857 E0.49534
G1 X95.562 Y119.472 E0.51508
G1 X95.123 Y118.822 E0.55421
G1 X95.076 Y118.037 E0.59345
G1 X94.891 Y117.823 E0.60756
G1 X94.614 Y117.275 E0.63819
G1 X94.561 Y116.52 E0.67595
G1 X94.352 Y116.264 E0.69244
G1 X94.136 Y115.788 E0.71852
G1 X94.084 Y115.05 E0.75543
G1 X93.883 Y114.818 E0.77075
G1 X93.581 Y114.171 E0.80637
G1 X93.581 Y113.12 E0.8588
G1 X93.292 Y112.659 E0.88595
G1 X93.073 Y111.979 E0.92159
G1 X93.072 Y111.072 E0.96684
G1 X92.708 Y110.307 E1.00911
G1 X92.563 Y109.463 E1.05183
G1 X92.563 Y108.588 E1.09548
G1 X92.369 Y108.161 E1.11888
G1 X92.268 Y107.614 E1.14663
G1 X92.055 Y106.992 E1.17943
G1 X92.054 Y104.545 E1.30152
G1 X91.779 Y103.989 E1.33246
G1 X91.779 Y92.402 E1.91054
G1 X92.054 Y91.719 E1.94727
G1 X92.055 Y82.315 E2.41644
G1 X92.241 Y81.69 E2.44897
G1 X92.32 Y81.568 E2.45622
G1 X92.322 Y78.159 E2.6263
G1 X92.563 Y77.535 E2.65967
G1 X92.562 Y69.619 E3.0546
G1 X92.589 Y68.962 E3.08741
G1 X92.859 Y68.33 E3.1217
G1 X92.86 Y65.484 E3.26368
G1 X93.072 Y64.904 E3.29449
G1 X93.074 Y57.746 E3.65161
G1 X93.393 Y57.099 E3.6876
G1 X93.394 Y53.748 E3.85478
G1 X93.581 Y53.242 E3.88169
G1 X93.581 Y46.035 E4.24125
G1 X93.924 Y45.376 E4.27831
G1 X93.925 Y43.102 E4.39177
G1 X94.09 Y42.433 E4.42614
G1 X94.09 Y36.008 E4.74669
G1 X94.134 Y35.305 E4.78183
G1 X94.451 Y34.766 E4.81302
G1 X94.453 Y32.458 E4.92817
G1 X94.596 Y31.883 E4.95773
G1 X94.598 Y24.977 E5.30227
G1 X94.945 Y24.235 E5.34314
G1 X94.772 Y23.96 E5.35935
G1 X94.284 Y23.489 E5.39319
G1 X93.616 Y23.292 E5.42793
G1 X93.185 Y22.907 E5.45676
G1 X92.652 Y22.712 E5.48508
G1 X92.251 Y22.405 E5.51027
G1 X91.831 Y22.317 E5.53168
G1 X91.293 Y21.953 E5.56409
G1 X90.655 Y21.825 E5.59655
G1 X90.211 Y21.453 E5.62545
G1 X89.873 Y21.41 E5.64245
G1 X89.551 Y21.261 E5.66015
G1 X89.194 Y20.949 E5.68381
G1 X88.571 Y20.935 E5.7149
G1 X87.953 Y20.912 E5.74575
G1 X87.633 Y20.81 E5.76251
G1 X87.156 Y20.426 E5.79306
G1 X86.018 Y20.425 E5.84983
G1 X85.682 Y20.353 E5.86698
G1 X85.153 Y19.951 E5.90012
G1 X84.493 Y19.917 E5.9331
G1 X76.1 Y19.917 E6.35182
G1 X75.268 Y19.951 E6.39337
G1 X74.942 Y20.25 E6.41544
G1 X74.572 Y20.425 E6.43586
G1 X73.391 Y20.425 E6.49478
G1 X72.712 Y20.474 E6.52874
G1 X72.216 Y20.858 E6.56003
G1 X71.921 Y20.931 E6.5752
G1 X70.727 Y20.937 E6.63477
G1 X70.266 Y21.326 E6.66486
G1 X69.893 Y21.443 E6.68436
G1 X69.225 Y21.444 E6.71769
G1 X68.901 Y21.748 E6.73985
G1 X68.485 Y21.952 E6.76297
G1 X67.689 Y21.953 E6.80268
G1 X67.211 Y22.366 E6.8342
G1 X66.714 Y22.466 E6.85949
G1 X66.317 Y23.182 E6.90034
G1 X66.316 Y24.447 E6.96345
G1 X66.204 Y25.392 E7.01092
G1 X66.115 Y25.645 E7.0243
G1 X66.114 Y26.661 E7.07499
G1 X65.809 Y27.212 E7.10641
G1 X65.807 Y36.74 E7.58177
G1 X65.632 Y37.306 E7.61132
G1 X65.566 Y37.414 E7.61764
G1 X65.565 Y40.881 E7.79061
G1 X65.632 Y40.989 E7.79695
G1 X65.809 Y41.567 E7.82711
G1 X65.808 Y59.776 E8.73556
G1 X66.036 Y60.133 E8.75669
G1 X66.113 Y60.462 E8.77355
G1 X66.115 Y65.928 E9.04625
G1 X66.315 Y66.464 E9.07479
G1 X66.317 Y78.012 E9.65092
G1 X66.672 Y78.583 E9.68447
G1 X66.673 Y87.371 E10.1229
G1 X66.821 Y87.996 E10.15494
G1 X66.83 Y99.395 E10.72364
G1 X67.126 Y99.797 E10.74855
G1 X67.217 Y100.156 E10.76703
G1 X67.219 Y101.649 E10.84151
G1 X67.328 Y102.189 E10.869
G1 X67.334 Y108.415 E11.17961
G1 X67.187 Y109.701 E11.24419
G1 X66.862 Y110.242 E11.27568
G1 X66.825 Y110.961 E11.31159
G1 X66.751 Y111.757 E11.35148
G1 X66.363 Y112.353 E11.38696
G1 X66.318 Y112.598 E11.39939
G1 X66.122 Y113.231 E11.43245
G1 X65.809 Y113.729 E11.46179
G1 X65.753 Y114.289 E11.48987
G1 X65.512 Y114.788 E11.51752
G1 X65.309 Y115.008 E11.53245
G1 X65.125 Y115.548 E11.56091
G1 X64.84 Y115.963 E11.58603
G1 X64.57 Y116.595 E11.62032
G1 X64.148 Y117.044 E11.65106
G1 X63.819 Y117.555 E11.68138
G1 X63.592 Y118.166 E11.7139
G1 X63.324 Y118.54 E11.73685
G1 X63.145 Y119.04 E11.76335
G1 X62.756 Y119.465 E11.79209
G1 X62.602 Y120.123 E11.82581
G1 X62.075 Y120.654 E11.86313
G1 X61.947 Y120.868 E11.87557
G1 X61.246 Y121.611 E11.92653
G1 X61.013 Y122.278 E11.96178
G1 X60.738 Y122.591 E11.98257
G1 X60.537 Y123.209 E12.01499
G1 X59.566 Y124.179 E12.08346
G1 X59.247 Y124.646 E12.11168
G1 X59.04 Y125.226 E12.1424
G1 X58.535 Y125.735 E12.17818
G1 X58.237 Y126.18 E12.2049
G1 X57.968 Y126.806 E12.23889
G1 X57.521 Y127.258 E12.2706
G1 X57.23 Y127.731 E12.29831
G1 X56.998 Y128.283 E12.32818
G1 X56.52 Y128.766 E12.36208
G1 X56.232 Y129.28 E12.39148
G1 X55.956 Y129.83 E12.42218
G1 X55.632 Y130.158 E12.44518
G1 X55.545 Y130.731 E12.4741
G1 X55.028 Y131.262 E12.51107
G1 X54.902 Y131.739 E12.53568
G1 X54.267 Y132.554 E12.58723
G1 X54.045 Y132.757 E12.60224
G1 X53.839 Y133.414 E12.63659
G1 X53.648 Y133.596 E12.64975
G1 X53.224 Y134.107 E12.68288
G1 X53.065 Y134.244 E12.69335
G1 X52.955 Y134.761 E12.71972
G1 X52.541 Y135.262 E12.75214
G1 X52.351 Y135.921 E12.78636
G1 X51.508 Y136.837 E12.84847
G1 X51.396 Y137.288 E12.87165
G1 X50.99 Y137.811 E12.90468
G1 X50.841 Y138.378 E12.93393
G1 X50.215 Y139.144 E12.98329
G1 X49.964 Y139.401 E13.00121
G1 X49.778 Y139.948 E13.03003
G1 X49.431 Y140.383 E13.0578
G1 X49.233 Y140.959 E13.08818
G1 X48.772 Y141.582 E13.12685
G1 X48.512 Y141.9 E13.14734
G1 X48.468 Y142.219 E13.16341
G1 X48.299 Y142.559 E13.18235
G1 X47.94 Y142.96 E13.2092
G1 X47.744 Y143.505 E13.2381
G1 X47.363 Y143.983 E13.26859
G1 X47.015 Y144.56 E13.30221
G1 X46.724 Y145.224 E13.33838
G1 X46.481 Y145.475 E13.35581
G1 X46.365 Y145.959 E13.38064
G1 X45.899 Y146.498 E13.41619
G1 X45.781 Y147.057 E13.44469
G1 X45.308 Y147.572 E13.47957
G1 X44.984 Y148.044 E13.50814
G1 X44.915 Y148.33 E13.52282
G1 X44.628 Y148.855 E13.55267
G1 X44.447 Y149.043 E13.56569
G1 X44.278 Y149.613 E13.59535
G1 X43.919 Y150.044 E13.62333
G1 X43.794 Y150.509 E13.64735
G1 X43.399 Y151.009 E13.67914
G1 X43.345 Y151.417 E13.69968
G1 X43.145 Y151.77 E13.71992
G1 X42.421 Y152.531 E13.77232
G1 X42.322 Y153.021 E13.79726
G1 X41.906 Y153.574 E13.83179
G1 X41.844 Y153.956 E13.85109
G1 X41.394 Y154.59 E13.88988
G1 X41.347 Y154.932 E13.9071
G1 X41.152 Y155.311 E13.92837
G1 X40.872 Y155.598 E13.94837
G1 X40.722 Y156.218 E13.9802
G1 X40.364 Y156.616 E14.0069
G1 X40.321 Y156.996 E14.02598
G1 X40.117 Y157.366 E14.04706
G1 X39.352 Y158.143 E14.10146
G1 X39.208 Y158.744 E14.1323
G1 X38.869 Y159.18 E14.15985
G1 X38.771 Y159.618 E14.18224
G1 X38.331 Y160.189 E14.2182
G1 X38.267 Y160.616 E14.23975
G1 X37.82 Y161.199 E14.2764
G1 X37.721 Y161.72 E14.30286
G1 X37.31 Y162.215 E14.33495
G1 X37.298 Y162.455 E14.34694
G1 X37.112 Y162.904 E14.37119
G1 X36.795 Y163.236 E14.39409
G1 X36.716 Y163.713 E14.41821
G1 X36.278 Y164.26 E14.45317
G1 X36.205 Y164.707 E14.47577
G1 X35.757 Y165.283 E14.51217
G1 X35.596 Y165.895 E14.54375
G1 X35.238 Y166.302 E14.57079
G1 X35.118 Y166.825 E14.59756
G1 X34.722 Y167.317 E14.62907
G1 X34.555 Y167.916 E14.66009
G1 X34.173 Y168.375 E14.68989
G1 X33.975 Y168.959 E14.72065
G1 X33.685 Y169.343 E14.74466
G1 X33.493 Y169.967 E14.77723
G1 X33.17 Y170.378 E14.80331
G1 X33.062 Y170.873 E14.82859
G1 X32.646 Y171.412 E14.86255
G1 X32.464 Y171.965 E14.8916
G1 X32.146 Y172.405 E14.91868
G1 X32.045 Y172.816 E14.9398
G1 X31.631 Y173.442 E14.97724
G1 X31.438 Y174.027 E15.00797
G1 X31.122 Y174.453 E15.03444
G1 X30.996 Y174.91 E15.05809
G1 X30.692 Y175.364 E15.08535
G1 X30.589 Y176.041 E15.11951
G1 X30.189 Y176.506 E15.15011
G1 X30.096 Y176.964 E15.17343
G1 X29.697 Y177.473 E15.20569
G1 X29.196 Y177.684 E15.23282
G1 X26.894 Y177.684 E15.34766
G1 X26.633 Y177.607 E15.36124
G1 X26.147 Y177.256 E15.39115
G1 X25.873 Y177.256 E15.40482
G1 X25.506 Y177.553 E15.42837
G1 X25.073 Y177.683 E15.45093
G1 X24.265 Y177.684 E15.49124
G1 X24.454 Y178.048 E15.5117
G1 X24.965 Y178.608 E15.54952
G1 X25.1 Y179.18 E15.57884
G1 X25.47 Y179.6 E15.60677
G1 X25.619 Y180.188 E15.63703
G1 X25.982 Y180.646 E15.66619
G1 X26.1 Y180.722 E15.67319
G1 X26.472 Y181.119 E15.70033
G1 X26.602 Y181.446 E15.71789
G1 X26.589 Y181.903 E15.7407
G1 X26.185 Y182.522 E15.77758
G1 X25.913 Y182.695 E15.79366
G1 X25.442 Y182.797 E15.8177
G1 X24.724 Y182.578 E15.85515
G1 X24.469 Y182.426 E15.86996
G1 X23.864 Y182.265 E15.9012
G1 X23.134 Y182.212 E15.93771
G1 X22.601 Y182 E15.96633
G1 X22.362 Y181.997 E15.97825
G1 X21.704 Y181.757 E16.0132
G1 X20.045 Y181.756 E16.09597
G1 X19.768 Y182.052 E16.11619
G1 X19.96 Y182.328 E16.13296
G1 X20.012 Y183.273 E16.18018
G1 X22.85 Y186.111 E16.38042
G1 X23.48 Y186.245 E16.41255
G1 X24.109 Y186.862 E16.45651
G1 X24.31 Y187.015 E16.46911
G1 X24.902 Y187.66 E16.51279
G1 X25.098 Y188.064 E16.53519
G1 X25.093 Y189.327 E16.59821
G1 X24.977 Y189.75 E16.62009
G1 X24.586 Y190.232 E16.65105
G1 X24.584 Y191.454 E16.71202
G1 X24.469 Y191.785 E16.7295
G1 X24.246 Y192.075 E16.74775
G1 X24.46 Y192.367 E16.76581
G1 X24.558 Y192.702 E16.78323
G1 X24.591 Y193.423 E16.81924
G1 X24.893 Y193.748 E16.84137
G1 X25.131 Y194.227 E16.86805
G1 X25.28 Y194.38 E16.87871
G1 X25.519 Y194.891 E16.90685
G1 X26.605 Y195.469 E16.96823
G1 X27.08 Y195.941 E17.00164
G1 X27.455 Y196.1 E17.02196
G1 X27.923 Y196.368 E17.04887
G1 X28.307 Y196.478 E17.06879
G1 X28.852 Y196.805 E17.1005
G1 X29.495 Y196.905 E17.13297
G1 X30.019 Y197.314 E17.16613
G1 X30.656 Y197.316 E17.19791
G1 X31.002 Y197.405 E17.21574
G1 X31.538 Y197.821 E17.24959
G1 X32.235 Y197.83 E17.28436
G1 X32.658 Y197.986 E17.30685
G1 X33.004 Y198.279 E17.32947
G1 X33.706 Y198.332 E17.3646
G1 X34.187 Y198.332 E17.38859
G1 X34.846 Y198.361 E17.4215
G1 X35.131 Y198.473 E17.43678
G1 X35.591 Y198.841 E17.46617
G1 X37.289 Y198.844 E17.55088
G1 X37.606 Y198.927 E17.56723
G1 X38.097 Y199.298 E17.59794
G1 X38.764 Y199.345 E17.63129
G1 X40.86 Y199.353 E17.73587
G1 X41.185 Y199.443 E17.75269
G1 X41.679 Y199.8 E17.7831
G1 X42.334 Y199.825 E17.8158
G1 X43.018 Y199.857 E17.84996
G1 X46.433 Y199.857 E18.02034
G1 X46.685 Y199.505 E18.04193
G1 X46.76 Y198.887 E18.07299
G1 X46.801 Y198.032 E18.1157
G1 X47.269 Y197.476 E18.15196
G1 X47.268 Y196.283 E18.21147
G1 X47.389 Y195.901 E18.23147
G1 X47.642 Y195.578 E18.25194
G1 X48.055 Y195.314 E18.27639
G1 X48.453 Y195.237 E18.29661
G1 X49.089 Y194.783 E18.3356
G1 X49.803 Y194.768 E18.37123
G1 X49.915 Y194.433 E18.38885
G1 X50.319 Y193.947 E18.42038
G1 X50.329 Y193.712 E18.43212
G1 X50.551 Y193.006 E18.46904
G1 X50.833 Y192.615 E18.49309
G1 X50.827 Y191.736 E18.53694
G1 X50.538 Y191.435 E18.55776
G1 X50.04 Y190.819 E18.59728
G1 X49.878 Y190.304 E18.62422
G1 X49.981 Y189.82 E18.6489
G1 X50.231 Y189.5 E18.66916
G1 X50.76 Y189.27 E18.69794
G1 X51.351 Y189.262 E18.72743
G1 X51.858 Y189.171 E18.75313
G1 X53.124 Y189.171 E18.81629
G1 X53.532 Y188.858 E18.84194
G1 X53.814 Y188.757 E18.85689
G1 X54.976 Y188.662 E18.91505
G1 X55.655 Y188.662 E18.94893
G1 X56.051 Y188.327 E18.97481
G1 X56.486 Y188.154 E18.99816
G1 X57.989 Y188.153 E19.07315
G1 X58.658 Y187.723 E19.11282
G1 X59.478 Y187.649 E19.1539
G1 X60.219 Y187.644 E19.19087
G1 X60.555 Y187.339 E19.21351
G1 X61.039 Y187.136 E19.23969
G1 X62.244 Y187.135 E19.29981
G1 X62.74 Y186.727 E19.33185
G1 X63.076 Y186.627 E19.34934
G1 X64.272 Y186.626 E19.40901
G1 X64.582 Y186.332 E19.43033
G1 X65.05 Y186.126 E19.45584
G1 X66.275 Y186.111 E19.51696
G1 X66.769 Y185.702 E19.54895
G1 X67.083 Y185.611 E19.56527
G1 X67.826 Y185.605 E19.60233
G1 X68.111 Y185.329 E19.62213
G1 X68.598 Y185.113 E19.64871
G1 X69.865 Y185.09 E19.71193
G1 X70.143 Y184.821 E19.73123
G1 X70.631 Y184.614 E19.75767
G1 X71.38 Y184.586 E19.79507
G1 X71.656 Y184.32 E19.81419
G1 X72.13 Y184.106 E19.84014
G1 X72.901 Y184.077 E19.87863
G1 X73.517 Y183.582 E19.91806
G1 X74.425 Y183.567 E19.96336
G1 X74.73 Y183.273 E19.9845
G1 X75.24 Y183.066 E20.01196
G1 X75.949 Y183.058 E20.04733
G1 X76.312 Y182.725 E20.07191
G1 X76.765 Y182.557 E20.09601
G1 X77.468 Y182.548 E20.13109
G1 X77.77 Y182.258 E20.15198
G1 X78.161 Y182.072 E20.17358
G1 X78.846 Y182.043 E20.20778
G1 X79.173 Y181.771 E20.229
G1 X79.788 Y181.546 E20.26168
G1 X80.031 Y181.533 E20.27382
G1 X80.455 Y181.16 E20.30199
G1 X80.84 Y181.028 E20.3223
G1 X81.5 Y181.027 E20.35522
G1 X82.087 Y180.58 E20.39203
G1 X82.52 Y180.509 E20.41392
G1 X82.867 Y180.185 E20.43761
G1 X83.267 Y180.024 E20.45912
G1 X84.037 Y180.008 E20.49754
G1 X84.564 Y179.607 E20.53058
G1 X85.094 Y179.482 E20.55775
G1 X85.539 Y179.122 E20.58631
G1 X86.11 Y178.969 E20.6158
G1 X86.513 Y178.64 E20.64175
G1 X87.175 Y178.484 E20.67569
G1 X87.679 Y178.074 E20.7081
G1 X88.194 Y177.981 E20.73421
G1 X88.768 Y177.548 E20.77008
G1 X89.211 Y177.481 E20.79243
G1 X89.662 Y177.109 E20.8216
G1 X90.226 Y176.982 E20.85044
G1 X90.712 Y176.594 E20.88147
G1 X91.241 Y176.479 E20.90848
G1 X91.868 Y176.037 E20.94675
G1 X92.258 Y175.975 E20.96645
G1 X92.569 Y175.68 E20.98784
G1 X93.197 Y175.449 E21.02122
G1 X93.968 Y174.801 E21.07147
G1 X94.61 Y174.158 E21.1168
G1 X95.234 Y173.927 E21.14999
G1 X95.816 Y173.397 E21.18927
G1 X95.993 Y173.13 E21.20525
G1 X97.144 Y172.011 E21.28534
G1 X97.343 Y171.411 E21.31687
